X: 249
T: The Bride of Malahide
B: O'Neill's 249
N: "Moderate"
Z: 1997 by John Chambers <jc@trillian.mit.edu>
M: 3/4
L: 1/8
K:G
(d/e/f) \
|g2 gfed|d2 edcdcB|c2 B2 BAG|E4 A/B/d \
|e2 fedB|AB d2 D2|E2 BA3 G|G2 :|
||D/E/F \
|G2 A2 BA|B2 B2 AG|c2 d2 ef|g4 d/e/g \
|a2 b2 a/g/e|d2 e2 e/d/B|A2 dB AB|A4 dcB|
|c2 d2 ef|g2 g2 gf/e/|d2 B2 AG|E4 D/E/F \
|G2 FE ~DC|B,2 A,B, G,2|E2 BTA3 G|G4||
